outputs/icons/communication/sync_disabled_sharp.svg

<svg xmlns="http://www.w3.org/2000/svg" width="1200" height="1200" fill="none"><g clip-path="url(#a)"><path fill="#000" d="M500.005 317.5V213c-33 8.5-64.5 21.5-93.999 37.5l75 75c6.499-2.5 12.5-5.5 18.999-8m500 282.5c0-110.5-45.5-210-118-282l118-118h-300v300l112-112c54 54.5 88 129 88 212 0 42.5-9.5 82.5-25.5 119l75 75c32-57 50.5-123.5 50.5-194m-786.5-400-70.499 70.5 117.999 118c-38.5 61-60.999 133.5-60.999 211.5 0 110.5 45.5 210 117.999 282l-117.999 118h299.999V700l-112 112c-54-54.5-87.999-129-87.999-212 0-50 12.5-97 33.999-138.5l404 404c-12.5 6.5-25 12-38 17V987c40-10.5 77.5-27 111.5-48l129 129 70.5-70.5z"/></g><defs><clipPath id="a"><path fill="#fff" d="M0 0h1200v1200H0z"/></clipPath></defs></svg>

<svg width="1200" height="1200" viewBox="0 0 1200 1200" fill="none" xmlns="http://www.w3.org/2000/svg"><g clip-path="url(#clip0_133_7)"><path d="M500.005 317.5V213C467.005 221.5 435.505 234.5 406.006 250.5L481.006 325.5C487.505 323 493.506 320 500.005 317.5ZM1000.005 600C1000.005 489.5 954.505 390 882.005 318L1000.005 200H700.005V500L812.005 388C866.005 442.5 900.005 517 900.005 600C900.005 642.5 890.505 682.5 874.505 719L949.505 794C981.505 737 1000.005 670.5 1000.005 600ZM213.505 200L143.006 270.5L261.005 388.5C222.505 449.5 200.006 522 200.006 600C200.006 710.5 245.506 810 318.005 882L200.006 1000H500.005V700L388.005 812C334.005 757.5 300.006 683 300.006 600C300.006 550 312.506 503 334.005 461.5L738.005 865.5C725.505 872 713.005 877.5 700.005 882.5V987C740.005 976.5 777.505 960 811.505 939L940.505 1068L1011.005 997.5L213.505 200Z" fill="#1D1E23"/></g><defs><clipPath id="clip0_133_7"><path width="24" fill="white" d="M0 0H1200V1200H0V0z"/></clipPath></defs></svg>
